assets/img/braze_icons/life-buoy-01.svg

<svg fill="none" height="24" viewBox="0 0 24 24" width="24" xmlns="http://www.w3.org/2000/svg"><g fill="#801ed7"><path d="m6.1996 4.78543c-.41891-.4189-.62836-.62836-.69475-.90038-.053-.21719-.01642-.50915.08854-.70655.13145-.24723.35305-.37889.79624-.64219 1.64265-.97591 3.56106-1.53631 5.61037-1.53631 2.0494 0 3.9678.56043 5.6105 1.53639.4432.26331.6648.39497.7962.6422.105.1974.1416.48935.0886.70654-.0664.27203-.2759.48148-.6948.90038l-2.8911 2.89111c-.2897.28973-.4346.43459-.5694.50533-.1566.0822-.208.09708-.3844.11128-.1517.01222-.4584-.05695-1.0719-.19529-.2843-.06411-.58-.09794-.8837-.09794-.3036 0-.5993.03383-.8836.09792-.6134.13832-.9202.20748-1.0719.19525-.17636-.0142-.22773-.02908-.38438-.11128-.1348-.07073-.27966-.21559-.56937-.50531z"/><path d="m4.7854 6.19966c-.41891-.41891-.62837-.62836-.90039-.69475-.2172-.053-.50916-.01641-.70655.08854-.24724.13146-.37889.35306-.64219.79625-.97589 1.64263-1.53627 3.56102-1.53627 5.6103 0 2.0494.56043 3.9678 1.53639 5.6105.26331.4432.39497.6648.6422.7962.1974.105.48935.1416.70654.0886.27203-.0664.48148-.2759.90038-.6948l2.89111-2.8911c.28973-.2897.43459-.4346.50533-.5694.0822-.1566.09708-.208.11128-.3844.01222-.1517-.05695-.4584-.19529-1.0719-.06411-.2843-.09794-.58-.09794-.8837 0-.3036.03382-.5993.09791-.8835.13831-.6135.20746-.9202.19524-1.072-.01421-.17629-.02908-.22766-.11129-.38431-.07073-.1348-.21559-.27965-.5053-.56936z"/><path d="m11.1166 15.9021c-.6135-.1383-.9202-.2074-1.0719-.1952-.17635.0142-.22773.0291-.38437.1113-.1348.0707-.27965.2156-.56935.5053l-2.89119 2.8912c-.41892.4189-.62837.6284-.69476.9004-.053.2172-.01641.5091.08855.7065.13146.2473.35306.3789.79626.6422 1.6426.9758 3.56094 1.5362 5.61016 1.5362 2.0493 0 3.9677-.5604 5.6103-1.5363.4432-.2633.6648-.3949.7962-.6422.105-.1974.1416-.4893.0886-.7065-.0664-.272-.2759-.4815-.6948-.9004l-2.8911-2.8912c-.2897-.2897-.4346-.4345-.5694-.5053-.1566-.0822-.208-.097-.3843-.1112-.1518-.0123-.4585.0569-1.072.1952-.2842.0641-.5799.0979-.8835.0979s-.5992-.0338-.8834-.0979z"/><path d="m15.9021 12.8836c-.1383.6134-.2075.9202-.1953 1.0719.0142.1764.0291.2277.1113.3844.0707.1348.2156.2796.5053.5694l2.8912 2.8911c.4189.4189.6283.6284.9004.6947.2171.0531.5091.0165.7065-.0885.2472-.1314.3789-.353.6422-.7962.9759-1.6427 1.5363-3.5611 1.5363-5.6104 0-2.04922-.5603-3.96756-1.5362-5.61016-.2633-.4432-.3949-.6648-.6422-.79626-.1974-.10496-.4893-.14155-.7065-.08855-.272.06639-.4815.27584-.9004.69476l-2.8912 2.89119c-.2897.2897-.4346.43455-.5053.56935-.0822.15664-.0971.20802-.1113.38437-.0122.1517.0569.4584.1952 1.0719.0641.2842.0979.5798.0979.8834s-.0338.5993-.0979.8836z"/></g></svg>

<svg width="24" height="24" viewBox="0 0 24 24" fill="none" xmlns="http://www.w3.org/2000/svg">
<path d="M6.1996 4.78543C5.78069 4.36653 5.57124 4.15707 5.50485 3.88505C5.45185 3.66786 5.48843 3.3759 5.59339 3.1785C5.72484 2.93127 5.94644 2.79961 6.38963 2.53631C8.03228 1.5604 9.95069 1 12 1C14.0494 1 15.9678 1.56043 17.6105 2.53639C18.0537 2.7997 18.2753 2.93136 18.4067 3.17859C18.5117 3.37599 18.5483 3.66794 18.4953 3.88513C18.4289 4.15716 18.2194 4.36661 17.8005 4.78551L14.9094 7.67662C14.6197 7.96635 14.4748 8.11121 14.34 8.18195C14.1834 8.26415 14.132 8.27903 13.9556 8.29323C13.8039 8.30545 13.4972 8.23628 12.8837 8.09794C12.5994 8.03383 12.3037 8 12 8C11.6964 8 11.4007 8.03383 11.1164 8.09792C10.503 8.23624 10.1962 8.3054 10.0445 8.29317C9.86814 8.27897 9.81677 8.26409 9.66012 8.18189C9.52532 8.11116 9.38046 7.9663 9.09075 7.67658L6.1996 4.78543Z" fill="#801ED7"/>
<path d="M4.7854 6.19966C4.36649 5.78075 4.15703 5.5713 3.88501 5.50491C3.66781 5.45191 3.37585 5.4885 3.17846 5.59345C2.93122 5.72491 2.79957 5.94651 2.53627 6.3897C1.56038 8.03233 1 9.95072 1 12C1 14.0494 1.56043 15.9678 2.53639 17.6105C2.7997 18.0537 2.93136 18.2753 3.17859 18.4067C3.37599 18.5117 3.66794 18.5483 3.88513 18.4953C4.15716 18.4289 4.36661 18.2194 4.78551 17.8005L7.67662 14.9094C7.96635 14.6197 8.11121 14.4748 8.18195 14.34C8.26415 14.1834 8.27903 14.132 8.29323 13.9556C8.30545 13.8039 8.23628 13.4972 8.09794 12.8837C8.03383 12.5994 8 12.3037 8 12C8 11.6964 8.03382 11.4007 8.09791 11.1165C8.23622 10.503 8.30537 10.1963 8.29315 10.0445C8.27894 9.86821 8.26407 9.81684 8.18186 9.66019C8.11113 9.52539 7.96627 9.38054 7.67656 9.09083L4.7854 6.19966Z" fill="#801ED7"/>
<path d="M11.1166 15.9021C10.5031 15.7638 10.1964 15.6947 10.0447 15.7069C9.86835 15.7211 9.81697 15.736 9.66033 15.8182C9.52553 15.8889 9.38068 16.0338 9.09098 16.3235L6.19979 19.2147C5.78087 19.6336 5.57142 19.8431 5.50503 20.1151C5.45203 20.3323 5.48862 20.6242 5.59358 20.8216C5.72504 21.0689 5.94664 21.2005 6.38984 21.4638C8.03244 22.4396 9.95078 23 12 23C14.0493 23 15.9677 22.4396 17.6103 21.4637C18.0535 21.2004 18.2751 21.0688 18.4065 20.8215C18.5115 20.6241 18.5481 20.3322 18.4951 20.115C18.4287 19.843 18.2192 19.6335 17.8003 19.2146L14.9092 16.3234C14.6195 16.0337 14.4746 15.8889 14.3398 15.8181C14.1832 15.7359 14.1318 15.7211 13.9555 15.7069C13.8037 15.6946 13.497 15.7638 12.8835 15.9021C12.5993 15.9662 12.3036 16 12 16C11.6964 16 11.4008 15.9662 11.1166 15.9021Z" fill="#801ED7"/>
<path d="M15.9021 12.8836C15.7638 13.497 15.6946 13.8038 15.7068 13.9555C15.721 14.1319 15.7359 14.1832 15.8181 14.3399C15.8888 14.4747 16.0337 14.6195 16.3234 14.9093L19.2146 17.8004C19.6335 18.2193 19.8429 18.4288 20.115 18.4951C20.3321 18.5482 20.6241 18.5116 20.8215 18.4066C21.0687 18.2752 21.2004 18.0536 21.4637 17.6104C22.4396 15.9677 23 14.0493 23 12C23 9.95078 22.4397 8.03244 21.4638 6.38984C21.2005 5.94664 21.0689 5.72504 20.8216 5.59358C20.6242 5.48862 20.3323 5.45203 20.1151 5.50503C19.8431 5.57142 19.6336 5.78087 19.2147 6.19979L16.3235 9.09098C16.0338 9.38068 15.8889 9.52553 15.8182 9.66033C15.736 9.81697 15.7211 9.86835 15.7069 10.0447C15.6947 10.1964 15.7638 10.5031 15.9021 11.1166C15.9662 11.4008 16 11.6964 16 12C16 12.3036 15.9662 12.5993 15.9021 12.8836Z" fill="#801ED7"/>
</svg>
